X:433
T:Reel 433
M:4/4
K:Gmaj
L:1/8
dc|BGGA  (3Bcd ef|gedB A2EA|GE (3EDE cdef|gedB c2dc|BAGg  (3efg dB|cedB A2ga|bgag bgaf|gedB G2|Bd|ef|gdge d2Bd|gedB c2ef|gefd ecdB|cABG A2dc|Bcef gfgf|eaab agef|gefd ecdB|cBAG Ac|
